X: 100336
T: LOCH LEVEN CASTLE HORNPIPE
R: hornpipe, reel
B: K\"ohler's Violin Repository, v.3, 1885 p.235 #2
F: http://www.archive.org/details/klersviolinrepos03rugg
Z: 2012 John Chambers <jc:trillian.mit.edu>
M: C|
L: 1/8
K: Am
(ucB) |\
(A^G)AB (A=G)EG | (A^G)AB c3(d | e^f)gd (eg)dc | B2G2 G2(cB) |\
(A^G)AB (A=G)EG | (A^G)AB c3(d | e^f)gd (eg)dB | c2A2 A2 ||
ue2 |\
(a^g)ab (a=g)eg | (a^g)ab a2=g^f | gedc Bgdc | (BG)dB G3(e |\
a^g)ab (a=g)eg | (a^g)ab a2cB | c3(d ge)dB | c2A2 A3e |
(a^g)ab (a=g)eg | (a^g)ab a2=g^f | gedc Bgdc | BGdB G2(cB) |\
(A^G)AB (cB)ce | (dc)BA (^GA)B=G | (Ec)ce (dB)A^G | e2A2 A2 "^D.C."|]

%%sep 2 1 500

